tests/fixtures/existing-sidecar-with-unrelated-fields.xmp
<?xpacket begin="﻿" id="W5M0MpCehiHzreSzNTczkc9d"?>
<x:xmpmeta xmlns:x="adobe:ns:meta/" x:xmptk="synthetic preservation fixture">
  <rdf:RDF xmlns:rdf="http://www.w3.org/1999/02/22-rdf-syntax-ns#">
    <rdf:Description
      rdf:about=""
      xmlns:crs="http://ns.adobe.com/camera-raw-settings/1.0/"
      xmlns:dc="http://purl.org/dc/elements/1.1/"
      xmlns:xmp="http://ns.adobe.com/xap/1.0/"
      crs:Exposure2012="-0.35"
      xmp:Label="Green"
      xmp:Rating="4">
      <dc:subject>
        <rdf:Bag>
          <rdf:li>protected-keyword</rdf:li>
        </rdf:Bag>
      </dc:subject>
    </rdf:Description>
  </rdf:RDF>
</x:xmpmeta>
<?xpacket end="w"?>
